svg/u263a.svg

<svg viewBox="0 0 128 128" xmlns="http://www.w3.org/2000/svg">
  <radialGradient id="face_1_" cx="63.6" cy="-2088.8999" gradientTransform="matrix(1 0 0 -1 0 -2026)" gradientUnits="userSpaceOnUse" r="56.9597">
    <stop offset="0.5" stop-color="#FDE030"/>
    <stop offset="0.9188" stop-color="#F7C02B"/>
    <stop offset="1" stop-color="#F4A223"/>
  </radialGradient>
  <path id="face_13_" d="M63.6,118.8c-27.9,0-58-17.5-58-55.9S35.7,7,63.6,7c15.5,0,29.8,5.1,40.4,14.4 c11.5,10.2,17.6,24.6,17.6,41.5s-6.1,31.2-17.6,41.4C93.4,113.6,79,118.8,63.6,118.8z" fill="url(#face_1_)"/>
  <path d="M111.49,29.67c5.33,8.6,8.11,18.84,8.11,30.23c0,16.9-6.1,31.2-17.6,41.4 c-10.6,9.3-25,14.5-40.4,14.5c-18.06,0-37.04-7.35-48.18-22.94c10.76,17.66,30.99,25.94,50.18,25.94c15.4,0,29.8-5.2,40.4-14.5 c11.5-10.2,17.6-24.5,17.6-41.4C121.6,50.16,118.13,38.84,111.49,29.67z" fill="#EB8F00"/>
  <radialGradient id="SVGID_1_" cx="25.7006" cy="66.5465" gradientTransform="matrix(0.9791 0 0 0.9301 2.0871 7.9338)" gradientUnits="userSpaceOnUse" r="19.4444">
    <stop offset="0" stop-color="#ED7770"/>
    <stop offset="0.9" stop-color="#ED7770" stop-opacity="0"/>
  </radialGradient>
  <circle cx="27.25" cy="69.83" fill="url(#SVGID_1_)" opacity="0.8" r="17.5"/>
  <radialGradient id="SVGID_2_" cx="100.7714" cy="66.5465" gradientTransform="matrix(0.9791 0 0 0.9301 2.0871 7.9338)" gradientUnits="userSpaceOnUse" r="19.4444">
    <stop offset="0" stop-color="#ED7770"/>
    <stop offset="0.9" stop-color="#ED7770" stop-opacity="0"/>
  </radialGradient>
  <circle cx="100.75" cy="69.83" fill="url(#SVGID_2_)" opacity="0.8" r="17.5"/>
  <g>
    <g id="eyebrows_32_">
      <path d="M47.18,35.61L47.18,35.61c2.31,0.03,2.98-3.13,0.53-3.65c-1.83-0.37-3.84-0.42-5.83-0.17 c-5.57,0.61-10.37,3.48-13.5,7.22c-1.56,1.92,0.99,3.94,2.69,2.51C35.42,37.99,41.16,35.66,47.18,35.61z" fill="#422B0D"/>
    </g>
    <g id="eyebrows_16_">
      <path d="M80.04,36.29L80.04,36.29c-2.29,0.26-3.27-2.82-0.89-3.58c1.79-0.54,3.78-0.79,5.78-0.74 c5.6,0.06,10.66,2.44,14.15,5.86c1.74,1.76-0.6,4.02-2.43,2.76C91.97,37.5,86.03,35.75,80.04,36.29z" fill="#422B0D"/>
    </g>
  </g>
  <path id="mouth_8_" d="M64,96.2c10.8,0,17.8-7.9,19.7-11.6c0.7-1.4,0.7-2.6,0.1-3.1c-0.5-0.4-1.2-0.4-2.1,0 c-0.3,0.1-0.6,0.3-0.9,0.5C76,85.4,70.1,87.5,64,87.5s-12-2.1-16.8-5.4c-0.3-0.2-0.6-0.4-0.9-0.5c-0.9-0.4-1.6-0.4-2.1,0 c-0.6,0.6-0.6,1.7,0.1,3.1C46.2,88.3,53.2,96.2,64,96.2z" fill="#422B0D"/>
  <path d="M51.6,61.43l-0.2-0.2c-0.1-0.1-0.4-0.4-0.5-0.5c-0.2-0.2-0.4-0.3-0.7-0.6c-0.3-0.2-0.6-0.5-1-0.7 s-0.8-0.5-1.2-0.7s-0.9-0.4-1.4-0.6s-1-0.3-1.5-0.4s-1-0.1-1.6-0.1h0.1l0,0l0,0l0,0h-0.1h-0.2H43c-0.3,0-0.3,0-0.4,0 c-0.2,0-0.5,0.1-0.7,0.1c-0.5,0.1-1,0.2-1.5,0.4c-0.5,0.2-1,0.3-1.4,0.6c-0.4,0.2-0.8,0.4-1.2,0.7c-0.7,0.5-1.3,1-1.7,1.3 c-0.4,0.4-0.6,0.6-0.6,0.6l-0.2,0.2c-1.2,1.2-3.2,1.2-4.6,0.2c-1-0.8-1.3-2.2-0.8-3.2l0.1-0.3c0.1-0.2,0.2-0.5,0.4-0.8 c0.4-0.7,1.1-1.7,2.2-2.8c0.5-0.5,1.2-1.1,1.9-1.6s1.6-1,2.5-1.4s2-0.8,3-1c0.5-0.1,1.1-0.2,1.7-0.3c0.3,0,0.7-0.1,0.8-0.1h0.8 c1.1,0,2.2,0.1,3.3,0.3c1.1,0.2,2.1,0.6,3,1s1.8,0.9,2.5,1.4c0.8,0.5,1.4,1,1.9,1.6c0.5,0.5,1,1,1.3,1.5c0.2,0.2,0.3,0.5,0.5,0.7 c0.1,0.2,0.3,0.4,0.4,0.6c0.3,0.4,0.3,0.6,0.4,0.8c0.1,0.2,0.1,0.2,0.1,0.2c0.7,1.5-0.1,3.2-1.8,3.8C54,62.63,52.5,62.33,51.6,61.43 L51.6,61.43z" fill="#422B0D"/>
  <path d="M92.51,61.07c0,0-0.07-0.07-0.2-0.2c-0.11-0.11-0.36-0.39-0.51-0.5c-0.19-0.16-0.42-0.35-0.69-0.57 c-0.29-0.22-0.62-0.46-0.98-0.71c-0.37-0.23-0.77-0.47-1.2-0.68c-0.42-0.23-0.9-0.39-1.38-0.57c-0.48-0.17-0.99-0.26-1.5-0.37 c-0.51-0.08-1.04-0.12-1.57-0.12c0.3,0,0.08,0,0.14,0l-0.01,0l-0.02,0l-0.04,0l-0.08,0l-0.16,0l-0.31,0.01 c-0.26,0-0.3,0.02-0.4,0.03c-0.16,0-0.45,0.05-0.7,0.09c-0.51,0.11-1.02,0.2-1.5,0.37c-0.47,0.18-0.95,0.34-1.37,0.57 c-0.43,0.22-0.83,0.45-1.2,0.68c-0.72,0.48-1.31,0.96-1.7,1.32c-0.4,0.36-0.63,0.58-0.63,0.58l-0.25,0.25 c-1.21,1.17-3.25,1.24-4.57,0.17c-1.04-0.85-1.3-2.16-0.78-3.25c0,0,0.05-0.1,0.15-0.3c0.1-0.19,0.22-0.49,0.44-0.84 c0.41-0.71,1.09-1.71,2.17-2.76c0.54-0.52,1.17-1.07,1.92-1.57c0.73-0.52,1.58-0.99,2.52-1.4c0.94-0.4,1.96-0.75,3.04-0.97 c0.55-0.1,1.06-0.2,1.73-0.26c0.31-0.03,0.68-0.06,0.84-0.07l0.77-0.03c1.13,0.02,2.25,0.14,3.34,0.35c1.08,0.22,2.1,0.57,3.04,0.97 c0.93,0.41,1.79,0.88,2.52,1.4c0.75,0.5,1.37,1.04,1.91,1.57c0.54,0.52,0.97,1.04,1.33,1.51c0.17,0.24,0.33,0.46,0.48,0.67 c0.14,0.23,0.28,0.44,0.39,0.63c0.27,0.42,0.29,0.58,0.39,0.77c0.07,0.16,0.11,0.25,0.11,0.25c0.67,1.49-0.14,3.18-1.81,3.78 C94.87,62.34,93.4,61.98,92.51,61.07z" fill="#422B0D"/>
</svg>

<svg viewBox="0 0 128 128" xmlns="http://www.w3.org/2000/svg">
  <defs>
    <radialGradient id="face_1_" cx="63.6" cy="-62.8999" gradientTransform="matrix(1 0 0 -1 0 0)" gradientUnits="userSpaceOnUse" r="56.9597">
      <stop offset="0.5" stop-color="#FDE030"/>
      <stop offset="0.9188" stop-color="#F7C02B"/>
      <stop offset="1" stop-color="#F4A223"/>
    </radialGradient>
    <radialGradient id="SVGID_1_" cx="27.832252" cy="75.076551" gradientTransform="matrix(0.9791 0 0 0.9301 0 0)" gradientUnits="userSpaceOnUse" r="19.4444">
      <stop offset="0" stop-color="#ED7770"/>
      <stop offset="0.9" stop-color="#ED7770" stop-opacity="0"/>
    </radialGradient>
    <radialGradient id="SVGID_2_" cx="102.903052" cy="75.076551" gradientTransform="matrix(0.9791 0 0 0.9301 0 0)" gradientUnits="userSpaceOnUse" r="19.4444">
      <stop offset="0" stop-color="#ED7770"/>
      <stop offset="0.9" stop-color="#ED7770" stop-opacity="0"/>
    </radialGradient>
  </defs>
  <path id="face_13_" d="M63.6,118.8 C35.7,118.8 5.6,101.3 5.6,62.9 C5.6,24.5 35.7,7 63.6,7 C79.1,7 93.4,12.1 104,21.4 C115.5,31.6 121.6,46 121.6,62.9 C121.6,79.8 115.5,94.1 104,104.3 C93.4,113.6 79,118.8 63.6,118.8 Z" fill="url(#face_1_)"/>
  <path d="M111.49,29.67 C116.82,38.27 119.6,48.51 119.6,59.9 C119.6,76.8 113.5,91.1 102,101.3 C91.4,110.6 77,115.8 61.6,115.8 C43.54,115.8 24.56,108.45 13.42,92.86 C24.18,110.52 44.41,118.8 63.6,118.8 C79,118.8 93.4,113.6 104,104.3 C115.5,94.1 121.6,79.8 121.6,62.9 C121.6,50.16 118.13,38.84 111.49,29.67 Z" fill="#EB8F00"/>
  <path d="M44.75,69.83 A17.5 17.5 0 1 1 9.75,69.83 A17.5 17.5 0 1 1 44.75,69.83 Z" fill="url(#SVGID_1_)" opacity="0.8"/>
  <path d="M118.25,69.83 A17.5 17.5 0 1 1 83.25,69.83 A17.5 17.5 0 1 1 118.25,69.83 Z" fill="url(#SVGID_2_)" opacity="0.8"/>
  <path d="M47.18,35.61 L47.18,35.61 C49.49,35.64 50.16,32.48 47.71,31.96 C45.88,31.59 43.87,31.54 41.88,31.79 C36.31,32.4 31.51,35.27 28.38,39.01 C26.82,40.93 29.37,42.95 31.07,41.52 C35.42,37.99 41.16,35.66 47.18,35.61 Z" fill="#422B0D"/>
  <path d="M80.04,36.29 L80.04,36.29 C77.75,36.55 76.77,33.47 79.15,32.71 C80.94,32.17 82.93,31.92 84.93,31.97 C90.53,32.03 95.59,34.41 99.08,37.83 C100.82,39.59 98.48,41.85 96.65,40.59 C91.97,37.5 86.03,35.75 80.04,36.29 Z" fill="#422B0D"/>
  <path id="mouth_8_" d="M64,96.2 C74.8,96.2 81.8,88.3 83.7,84.6 C84.4,83.2 84.4,82 83.8,81.5 C83.3,81.1 82.6,81.1 81.7,81.5 C81.4,81.6 81.1,81.8 80.8,82 C76,85.4 70.1,87.5 64,87.5 C57.9,87.5 52,85.4 47.2,82.1 C46.9,81.9 46.6,81.7 46.3,81.6 C45.4,81.2 44.7,81.2 44.2,81.6 C43.6,82.2 43.6,83.3 44.3,84.7 C46.2,88.3 53.2,96.2 64,96.2 Z" fill="#422B0D"/>
  <path d="M51.6,61.43 L51.4,61.23 C51.3,61.13 51,60.83 50.9,60.73 C50.7,60.53 50.5,60.43 50.2,60.13 C49.9,59.93 49.6,59.63 49.2,59.43 C48.8,59.23 48.4,58.93 48,58.73 C47.6,58.53 47.1,58.33 46.6,58.13 C46.1,57.93 45.6,57.83 45.1,57.73 C44.6,57.63 44.1,57.63 43.5,57.63 L43.6,57.63 L43.6,57.63 L43.6,57.63 L43.6,57.63 L43.5,57.63 L43.3,57.63 L43,57.63 C42.7,57.63 42.7,57.63 42.6,57.63 C42.4,57.63 42.1,57.73 41.9,57.73 C41.4,57.83 40.9,57.93 40.4,58.13 C39.9,58.33 39.4,58.43 39,58.73 C38.6,58.93 38.2,59.13 37.8,59.43 C37.1,59.93 36.5,60.43 36.1,60.73 C35.7,61.13 35.5,61.33 35.5,61.33 L35.3,61.53 C34.1,62.73 32.1,62.73 30.7,61.73 C29.7,60.93 29.4,59.53 29.9,58.53 L30,58.23 C30.1,58.03 30.2,57.73 30.4,57.43 C30.8,56.73 31.5,55.73 32.6,54.63 C33.1,54.13 33.8,53.53 34.5,53.03 C35.2,52.53 36.1,52.03 37,51.63 C37.9,51.23 39,50.83 40,50.63 C40.5,50.53 41.1,50.43 41.7,50.33 C42,50.33 42.4,50.23 42.5,50.23 L43.3,50.23 C44.4,50.23 45.5,50.33 46.6,50.53 C47.7,50.73 48.7,51.13 49.6,51.53 C50.5,51.93 51.4,52.43 52.1,52.93 C52.9,53.43 53.5,53.93 54,54.53 C54.5,55.03 55,55.53 55.3,56.03 C55.5,56.23 55.6,56.53 55.8,56.73 C55.9,56.93 56.1,57.13 56.2,57.33 C56.5,57.73 56.5,57.93 56.6,58.13 C56.7,58.33 56.7,58.33 56.7,58.33 C57.4,59.83 56.6,61.53 54.9,62.13 C54,62.63 52.5,62.33 51.6,61.43 L51.6,61.43 Z" fill="#422B0D"/>
  <path d="M92.51,61.07 C92.51,61.07 92.44,61 92.31,60.87 C92.2,60.76 91.95,60.48 91.8,60.37 C91.61,60.21 91.38,60.02 91.11,59.8 C90.82,59.58 90.49,59.34 90.13,59.09 C89.76,58.86 89.36,58.62 88.93,58.41 C88.51,58.18 88.03,58.02 87.55,57.84 C87.07,57.67 86.56,57.58 86.05,57.47 C85.54,57.39 85.01,57.35 84.48,57.35 C84.78,57.35 84.56,57.35 84.62,57.35 L84.61,57.35 L84.59,57.35 L84.55,57.35 L84.47,57.35 L84.31,57.35 L84,57.36 C83.74,57.36 83.7,57.38 83.6,57.39 C83.44,57.39 83.15,57.44 82.9,57.48 C82.39,57.59 81.88,57.68 81.4,57.85 C80.93,58.03 80.45,58.19 80.03,58.42 C79.6,58.64 79.2,58.87 78.83,59.1 C78.11,59.58 77.52,60.06 77.13,60.42 C76.73,60.78 76.5,61 76.5,61 L76.25,61.25 C75.04,62.42 73,62.49 71.68,61.42 C70.64,60.57 70.38,59.26 70.9,58.17 C70.9,58.17 70.95,58.07 71.05,57.87 C71.15,57.68 71.27,57.38 71.49,57.03 C71.9,56.32 72.58,55.32 73.66,54.27 C74.2,53.75 74.83,53.2 75.58,52.7 C76.31,52.18 77.16,51.71 78.1,51.3 C79.04,50.9 80.06,50.55 81.14,50.33 C81.69,50.23 82.2,50.13 82.87,50.07 C83.18,50.04 83.55,50.01 83.71,50 L84.48,49.97 C85.61,49.99 86.73,50.11 87.82,50.32 C88.9,50.54 89.92,50.89 90.86,51.29 C91.79,51.7 92.65,52.17 93.38,52.69 C94.13,53.19 94.75,53.73 95.29,54.26 C95.83,54.78 96.26,55.3 96.62,55.77 C96.79,56.01 96.95,56.23 97.1,56.44 C97.24,56.67 97.38,56.88 97.49,57.07 C97.76,57.49 97.78,57.65 97.88,57.84 C97.95,58 97.99,58.09 97.99,58.09 C98.66,59.58 97.85,61.27 96.18,61.87 C94.87,62.34 93.4,61.98 92.51,61.07 Z" fill="#422B0D"/>
</svg>
